svg/transport/steering_wheel_line.svg

<?xml version="1.0" encoding="UTF-8"?>
<svg width="24px" height="24px" viewBox="0 0 24 24" version="1.1" xmlns="http://www.w3.org/2000/svg" xmlns:xlink="http://www.w3.org/1999/xlink">
    <title>steering_wheel_line</title>
    <g id="页面-1" stroke="none" stroke-width="1" fill="none" fill-rule="evenodd">
        <g id="Transport" transform="translate(-432.000000, -192.000000)">
            <g id="steering_wheel_line" transform="translate(432.000000, 192.000000)">
                 <path d="M24,0 L24,24 L0,24 L0,0 L24,0 Z M12.5934901,23.257841 L12.5819402,23.2595131 L12.5108777,23.2950439 L12.4918791,23.2987469 L12.4918791,23.2987469 L12.4767152,23.2950439 L12.4056548,23.2595131 C12.3958229,23.2563662 12.3870493,23.2590235 12.3821421,23.2649074 L12.3780323,23.275831 L12.360941,23.7031097 L12.3658947,23.7234994 L12.3769048,23.7357139 L12.4804777,23.8096931 L12.4953491,23.8136134 L12.4953491,23.8136134 L12.5071152,23.8096931 L12.6106902,23.7357139 L12.6232938,23.7196733 L12.6232938,23.7196733 L12.6266527,23.7031097 L12.609561,23.275831 C12.6075724,23.2657013 12.6010112,23.2592993 12.5934901,23.257841 L12.5934901,23.257841 Z M12.8583906,23.1452862 L12.8445485,23.1473072 L12.6598443,23.2396597 L12.6498822,23.2499052 L12.6498822,23.2499052 L12.6471943,23.2611114 L12.6650943,23.6906389 L12.6699349,23.7034178 L12.6699349,23.7034178 L12.678386,23.7104931 L12.8793402,23.8032389 C12.8914285,23.8068999 12.9022333,23.8029875 12.9078286,23.7952264 L12.9118235,23.7811639 L12.8776777,23.1665331 C12.8752882,23.1545897 12.8674102,23.1470016 12.8583906,23.1452862 L12.8583906,23.1452862 Z M12.1430473,23.1473072 C12.1332178,23.1423925 12.1221763,23.1452606 12.1156365,23.1525954 L12.1099173,23.1665331 L12.0757714,23.7811639 C12.0751323,23.7926639 12.0828099,23.8018602 12.0926481,23.8045676 L12.108256,23.8032389 L12.3092106,23.7104931 L12.3186497,23.7024347 L12.3186497,23.7024347 L12.3225043,23.6906389 L12.340401,23.2611114 L12.337245,23.2485176 L12.337245,23.2485176 L12.3277531,23.2396597 L12.1430473,23.1473072 Z" id="MingCute" fill-rule="nonzero"></path>
                <path d="M12,2 C17.5228,2 22,6.47715 22,12 C22,17.5228 17.5228,22 12,22 C6.47715,22 2,17.5228 2,12 C2,6.47715 6.47715,2 12,2 Z M8.31281,14.7811 C7.26918,13.9462 5.85286,13.623 4.20548,13.8094 C4.91167,16.8637 7.3669,19.2485 10.4593,19.8518 C10.2659,17.2271 9.40258,15.6529 8.31281,14.7811 Z M15.6872,14.7811 C14.5974,15.6529 13.7341,17.2271 13.5407,19.8518 C16.6331,19.2485 19.0883,16.8637 19.7945,13.8094 C18.1471,13.623 16.7308,13.9462 15.6872,14.7811 Z M12,10 C11.0499,10 10.2679,10.3697 9.69398,10.7776 L9.19635547,11.1250188 C8.67227188,11.4803125 8.0695325,11.84455 7.39463,12.0856 C8.17187,12.3216 8.9035,12.6924 9.56219,13.2194 C10.6863,14.1186 11.5146,15.4058 12,17.0779 C12.4854,15.4058 13.3137,14.1186 14.4378,13.2194 C15.0965,12.6924 15.8281,12.3216 16.6054,12.0856 C15.930475,11.84455 15.3277188,11.4803125 14.8036281,11.1250188 L14.306,10.7776 L14.306,10.7776 C13.7321,10.3697 12.9501,10 12,10 Z M12,4 C8.08996957,4 4.83510702,6.80508436 4.13801278,10.5126152 L4.09535,10.7611 L6.3053,10.3191 C6.886868,10.20278 7.4404616,9.89558 8.05840976,9.47902064 L8.53538,9.14737 C9.33245,8.58089 10.5126,8 12,8 C13.38824,8 14.5087876,8.50601973 15.3000958,9.03405825 L15.94158,9.47902064 C16.482288,9.84351008 16.973702,10.1242713 17.4777335,10.2666917 L17.6947,10.3191 L19.9047,10.7611 C19.3092,6.93114 15.9969,4 12,4 Z" id="形状" fill="#09244B"></path>
            </g>
        </g>
    </g>
</svg>

<svg xmlns="http://www.w3.org/2000/svg" width="24" height="24"><g fill="none" fill-rule="evenodd"><path d="M24 0v24H0V0h24ZM12.593 23.258l-.011.002-.071.035-.02.004-.014-.004-.071-.035c-.01-.004-.019-.001-.024.005l-.004.01-.017.428.005.02.01.013.104.074.015.004.012-.004.104-.074.012-.016.004-.017-.017-.427c-.002-.01-.009-.017-.017-.018Zm.265-.113-.013.002-.185.093-.01.01-.003.011.018.43.005.012.008.007.201.093c.012.004.023 0 .029-.008l.004-.014-.034-.614c-.003-.012-.01-.02-.02-.022Zm-.715.002a.023.023 0 0 0-.027.006l-.006.014-.034.614c0 .012.007.02.017.024l.015-.002.201-.093.01-.008.004-.011.017-.43-.003-.012-.01-.01-.184-.092Z"/><path fill="#09244B" d="M12 2c5.523 0 10 4.477 10 10s-4.477 10-10 10S2 17.523 2 12 6.477 2 12 2ZM8.313 14.781c-1.044-.835-2.46-1.158-4.108-.972a8.01 8.01 0 0 0 6.254 6.043c-.193-2.625-1.056-4.2-2.146-5.07Zm7.374 0c-1.09.872-1.953 2.446-2.146 5.07a8.01 8.01 0 0 0 6.253-6.042c-1.647-.186-3.063.137-4.107.972ZM12 10c-.95 0-1.732.37-2.306.778l-.498.347c-.524.355-1.126.72-1.801.96a6.435 6.435 0 0 1 2.167 1.134c1.124.9 1.953 2.187 2.438 3.859.485-1.672 1.314-2.96 2.438-3.859a6.434 6.434 0 0 1 2.167-1.133c-.675-.241-1.277-.606-1.801-.961l-.498-.347C13.732 10.37 12.95 10 12 10Zm0-6a8.003 8.003 0 0 0-7.862 6.513l-.043.248 2.21-.442c.582-.116 1.135-.423 1.753-.84l.477-.332C9.332 8.581 10.513 8 12 8c1.388 0 2.509.506 3.3 1.034l.642.445c.54.365 1.032.645 1.536.788l.217.052 2.21.442A8.002 8.002 0 0 0 12 4Z"/></g></svg>
